X:1
T: Malcolm R. Macpherson's Jig
C:Bruce Shawyer: Adapted from an original slow air by Tommy Kettles (1966)
R:Jig
Q:180
K:A
M:6/8
L:1/16
A2|c2A2c2 e2c2e2|a2g2f2 e2c2d2|e2c2e2 f4a2|e2c2A2 B2A2B2|c2A2c2 e2c2e2|a2g2f2 e4f2|e2B2c2 e2d2B2|A6A6|
c2A2c2 e2c2e2|a2g2f2 e2c2d2|e2c2e2 f4a2|e2c2A2 B2A2B2|c2A2c2 e2c2e2|a2g2f2 e4f2|e2B2c2 e2d2B2|A6A4c2|
e2c2e2 a2f2a2|a2g2f2 e2c2d2|e2c2e2 a2f2a2|a2e2c2 B2c2d2|e2c2e2 a2f2a2|a2g2f2 e4f2|e2B2c2 e2d2B2|A6A4c2|
e2c2e2 a2f2a2|a2g2f2 e2c2d2|e2c2e2 a2f2a2|a2e2c2B6|A2B2c2 e2d2c2|c2d2e2 c2d2e2|e2B2c2 e2d2B2|A6A4|

